icons/14x14_note_outline.svg

<svg xmlns="http://www.w3.org/2000/svg" width="14" height="14" viewBox="0 0 14 14">
  <path fill-rule="evenodd" d="M3,1 L11,1 C11.5522847,1 12,1.44771525 12,2 L12,12 C12,12.5522847 11.5522847,13 11,13 L3,13 C2.44771525,13 2,12.5522847 2,12 L2,2 C2,1.44771525 2.44771525,1 3,1 Z M4,3 L4,11 L10,11 L10,3 L4,3 Z M5,8 L9,8 L9,9 L5,9 L5,8 Z M5,5 L9,5 L9,6 L5,6 L5,5 Z"/>
</svg>

<svg width="14" height="14" fill="none" xmlns="http://www.w3.org/2000/svg"><path fill-rule="evenodd" clip-rule="evenodd" d="M3 1h8a1 1 0 0 1 1 1v10a1 1 0 0 1-1 1H3a1 1 0 0 1-1-1V2a1 1 0 0 1 1-1Zm1 2v8h6V3H4Zm1 5h4v1H5V8Zm0-3h4v1H5V5Z" fill="#000"/></svg>
